icon-themes/breeze_svg/cmd/lc_extrusiondirectionfloater.svg

<svg viewBox="0 0 24 24" xmlns="http://www.w3.org/2000/svg"><path d="m16 4-11 6h10v8l6-9v-5z" fill="#b3b3b3"/><path d="m15.15625 4-1.78125 1-9 5-.375.21875v9.78125h10.802734l.197266-.34375 5-8.59375 1-1.71875v-2.03125-2.625-.6875h-.6875-3.0625zm.28125 1h3.875l-5 5h-7.875zm4.5625.6875v3.34375l-5 8.59375v-6.9375zm-15 5.3125h9v8h-9z" fill="#4d4d4d"/></svg>

<svg xmlns="http://www.w3.org/2000/svg" viewBox="0 0 24 24">
 <path 
     style="fill:#b3b3b3" 
     d="M 16 4 L 5 10 L 15 10 L 15 18 L 21 9 L 21 4 L 16 4 z "
     />
 <path 
     style="fill:#4d4d4d" 
     d="M 15.15625 4 L 13.375 5 L 4.375 10 L 4 10.21875 L 4 20 L 14.802734 20 L 15 19.65625 L 20 11.0625 L 21 9.34375 L 21 7.3125 L 21 4.6875 L 21 4 L 20.3125 4 L 17.25 4 L 15.15625 4 z M 15.4375 5 L 19.3125 5 L 14.3125 10 L 6.4375 10 L 15.4375 5 z M 20 5.6875 L 20 9.03125 L 15 17.625 L 15 10.6875 L 20 5.6875 z M 5 11 L 14 11 L 14 19 L 5 19 L 5 11 z "
     />
 </svg>
